components/Icon/icons/django.svg

<svg width="50" height="50" viewBox="0 0 50 50" fill="none" xmlns="http://www.w3.org/2000/svg">
<path d="M44.5312 0H5.46875C2.44844 0 0 2.44844 0 5.46875V44.5312C0 47.5516 2.44844 50 5.46875 50H44.5312C47.5516 50 50 47.5516 50 44.5312V5.46875C50 2.44844 47.5516 0 44.5312 0Z" fill="#092E20"/>
<path d="M36.4017 18.3981V31.3328C36.4017 35.7899 36.0755 37.9274 35.0974 39.7752C34.1914 41.551 32.9957 42.674 30.532 43.9061L25.3503 41.4422C27.8144 40.2828 29.0101 39.2684 29.7709 37.7098C30.5681 36.1158 30.822 34.2678 30.822 29.4127V18.3981H36.4017V18.3981ZM27.525 9.78088V35.6088C24.6626 36.1522 22.5611 36.3696 20.2785 36.3696C13.4666 36.3696 9.91577 33.2901 9.91577 27.3838C9.91577 21.6951 13.6841 17.9996 19.5173 17.9996C20.4232 17.9996 21.1117 18.0719 21.9451 18.2893V9.78127H27.5251L27.525 9.78088ZM20.0611 22.4922C17.2349 22.4922 15.6042 24.2315 15.6042 27.2748C15.6042 30.2463 17.1625 31.8766 20.025 31.8766C20.6406 31.8766 21.148 31.8405 21.9451 31.7321V22.7819C21.2929 22.5647 20.7496 22.4922 20.0611 22.4922V22.4922ZM36.4017 9.81057V15.5356H30.822V9.81077H36.4017V9.81057Z" fill="#FFFFFD"/>
</svg>

<svg xmlns="http://www.w3.org/2000/svg" 
viewBox="0 0 50 50" width="100%" height="100%" fill="none"  xmlns:v="https://vecta.io/nano"><path d="M44.531 0H5.469A5.47 5.47 0 0 0 0 5.469v39.062A5.47 5.47 0 0 0 5.469 50h39.062A5.47 5.47 0 0 0 50 44.531V5.469A5.47 5.47 0 0 0 44.531 0z" fill="#092e20"/><path d="M36.402 18.398v12.935c0 4.457-.326 6.595-1.304 8.442-.906 1.776-2.102 2.899-4.565 4.131l-5.182-2.464c2.464-1.159 3.66-2.174 4.421-3.732.797-1.594 1.051-3.442 1.051-8.297V18.398h5.58zm-8.877-8.617v25.828c-2.862.543-4.964.761-7.246.761-6.812 0-10.363-3.079-10.363-8.986 0-5.689 3.768-9.384 9.602-9.384.906 0 1.594.072 2.428.29V9.781h5.58zm-7.464 12.711c-2.826 0-4.457 1.739-4.457 4.783 0 2.972 1.558 4.602 4.421 4.602.616 0 1.123-.036 1.92-.145v-8.95a5.54 5.54 0 0 0-1.884-.29h0zM36.402 9.811v5.725h-5.58V9.811h5.58z" fill="#fffffd"/></svg>
